icons/svg/24x24/trash/filled.svg

<svg xmlns="http://www.w3.org/2000/svg" width="24" height="24" viewBox="0 0 24 24">
  <path fill-rule="evenodd" d="M18,3 L15,3 C15,2.447 14.553,2 14,2 L10,2 C9.447,2 9,2.447 9,3 L6,3 C5.447,3 5,3.447 5,4 C5,4.553 5.447,5 6,5 L18,5 C18.553,5 19,4.553 19,4 C19,3.447 18.553,3 18,3 L18,3 Z M6,6 L18,6 L18,19 C18,20.657 16.657,22 15,22 L9,22 C7.343,22 6,20.657 6,19 L6,6 Z"/>
</svg>

<svg width="24" height="24" fill="none" xmlns="http://www.w3.org/2000/svg">
  <path fill-rule="evenodd" clip-rule="evenodd" d="M18 3h-3a1 1 0 00-1-1h-4a1 1 0 00-1 1H6a1 1 0 100 2h12a1 1 0 100-2zM6 6h12v13a3 3 0 01-3 3H9a3 3 0 01-3-3V6z" fill="#000"/>
</svg>
